Icons/svg/microphone.svg

<svg xmlns="http://www.w3.org/2000/svg" width="331" height="436.3" viewBox="0 0 331 436.3"><g fill="#323232"><path d="M331 209.9c0-8.4-6.8-15.1-15.1-15.1s-15.1 6.8-15.1 15.1c0 74.6-60.7 135.2-135.2 135.2-74.6 0-135.2-60.7-135.2-135.2 0-8.4-6.8-15.1-15.1-15.1s-15.3 6.7-15.3 15.1c0 81.2 58.7 148.9 135.5 162.9v22.6h-67v40.9h194v-40.9h-67v-22.6c77.2-14 135.5-81.7 135.5-162.9zM158.5 312.5h14c52.5 0 95.2-42.7 95.2-95.2v-122.1c0-52.5-42.7-95.2-95.2-95.2h-14c-52.5 0-95.2 42.7-95.2 95.2v122.1c0 52.5 42.7 95.2 95.2 95.2zm-65.2-217.3c0-35.9 29.2-65.2 65.2-65.2h14c35.9 0 65.2 29.2 65.2 65.2v122.1c0 35.9-29.2 65.2-65.2 65.2h-14c-35.9 0-65.2-29.2-65.2-65.2v-122.1z"/></g></svg>

<?xml version="1.0" encoding="utf-8"?>
<!-- Generator: Adobe Illustrator 18.1.1, SVG Export Plug-In . SVG Version: 6.00 Build 0)  -->
<!DOCTYPE svg PUBLIC "-//W3C//DTD SVG 1.1//EN" "http://www.w3.org/Graphics/SVG/1.1/DTD/svg11.dtd">
<svg version="1.1" id="Layer_1" xmlns="http://www.w3.org/2000/svg" xmlns:xlink="http://www.w3.org/1999/xlink" x="0px" y="0px"
	 viewBox="0 0 331 436.3" enable-background="new 0 0 331 436.3" xml:space="preserve">
<g>
	<path fill="#323232" d="M331,209.9c0-8.4-6.8-15.1-15.1-15.1s-15.1,6.8-15.1,15.1c0,74.6-60.7,135.2-135.2,135.2
		c-74.6,0-135.2-60.7-135.2-135.2c0-8.4-6.8-15.1-15.1-15.1S0,201.5,0,209.9c0,81.2,58.7,148.9,135.5,162.9v22.6h-67v40.9h194v-40.9
		h-67v-22.6C272.7,358.8,331,291.1,331,209.9z"/>
	<path fill="#323232" d="M158.5,312.5h14c52.5,0,95.2-42.7,95.2-95.2V95.2C267.7,42.7,225,0,172.5,0h-14C106,0,63.3,42.7,63.3,95.2
		v122.1C63.3,269.8,106,312.5,158.5,312.5z M93.3,95.2c0-35.9,29.2-65.2,65.2-65.2h14c35.9,0,65.2,29.2,65.2,65.2v122.1
		c0,35.9-29.2,65.2-65.2,65.2h-14c-35.9,0-65.2-29.2-65.2-65.2V95.2z"/>
</g>
<g>
</g>
<g>
</g>
<g>
</g>
<g>
</g>
<g>
</g>
<g>
</g>
<g>
</g>
<g>
</g>
<g>
</g>
<g>
</g>
<g>
</g>
<g>
</g>
<g>
</g>
<g>
</g>
<g>
</g>
</svg>
